X: 1
T: Keelman Ower The Land, The
M: 3/4
L: 1/8
R: waltz
K: Gmaj
|:dc/B/A/G/ d2g|dc/B/A/G/ d2g|ecA gcA|ecA efg|
dBG GAB|Bge dBG|A/B/c/B/A B/c/d/c/B|e2d efg:|
|:ddg ddg|ddg  dcB|eea eea|eea edc|
ddg ddg|Gge dBG|A/B/c/B/A B/c/d/c/B|e2d efg:|
|:d/B/GG G/B/GG|d/B/GG G/B/GG|e/c/AA A/c/AA|e/c/AA A/c/AA|
dBG GAB|Bge dBG|A/B/c/B/A B/c/d/c/B|1 e2d efg:|2 e2d efa|g3-g3|-g3 ||
